build/assets/images/svg/icons/lk/personal_account/men.svg

<svg width="48" height="48" viewBox="0 0 48 48" fill="none" xmlns="http://www.w3.org/2000/svg">
<rect width="48" height="48" rx="24" fill="#F4F7FB"/>
<path fill-rule="evenodd" clip-rule="evenodd" d="M24 14C21.2386 14 19 16.2386 19 19C19 21.7614 21.2386 24 24 24C26.7614 24 29 21.7614 29 19C29 16.2386 26.7614 14 24 14ZM21 19C21 17.3431 22.3431 16 24 16C25.6569 16 27 17.3431 27 19C27 20.6569 25.6569 22 24 22C22.3431 22 21 20.6569 21 19Z" fill="#203686"/>
<path fill-rule="evenodd" clip-rule="evenodd" d="M24 35C22.4595 35 20.2298 34.6502 18.5554 33.9174C17.7334 33.5576 16.8975 33.0427 16.4118 32.2974C16.1563 31.9054 15.9948 31.4437 16.0001 30.9282C16.0054 30.4174 16.1734 29.9281 16.4559 29.4728C17.8253 27.2656 20.6268 25 24 25C27.3732 25 30.1747 27.2656 31.5441 29.4728C31.8266 29.9281 31.9946 30.4174 31.9999 30.9282C32.0052 31.4437 31.8437 31.9054 31.5882 32.2974C31.1025 33.0427 30.2666 33.5576 29.4446 33.9174C27.7702 34.6502 25.5405 35 24 35ZM18.1554 30.5272C18.0237 30.7394 18.0008 30.8757 18 30.9487C17.9993 31.017 18.0169 31.0973 18.0874 31.2055C18.2535 31.4605 18.6571 31.7787 19.3573 32.0852C20.7274 32.6848 22.6732 33 24 33C25.3268 33 27.2726 32.6848 28.6427 32.0852C29.3429 31.7787 29.7465 31.4605 29.9126 31.2055C29.9831 31.0973 30.0007 31.017 30 30.9487C29.9992 30.8757 29.9763 30.7394 29.8446 30.5272C28.7225 28.7185 26.4843 27 24 27C21.5157 27 19.2775 28.7185 18.1554 30.5272Z" fill="#203686"/>
</svg>

<svg width="48" height="48" fill="none" xmlns="http://www.w3.org/2000/svg"><rect width="48" height="48" rx="24" fill="#F4F7FB"/><path fill-rule="evenodd" clip-rule="evenodd" d="M24 14a5 5 0 100 10 5 5 0 000-10zm-3 5a3 3 0 116 0 3 3 0 01-6 0zm3 16c-1.54 0-3.77-.35-5.445-1.083-.822-.36-1.657-.874-2.143-1.62A2.44 2.44 0 0116 30.928c.005-.51.173-1 .456-1.455C17.826 27.266 20.626 25 24 25c3.373 0 6.175 2.266 7.544 4.473.283.455.45.944.456 1.455a2.44 2.44 0 01-.412 1.37c-.486.745-1.321 1.26-2.143 1.62C27.77 34.65 25.54 35 24 35zm-5.845-4.473c-.131.212-.154.349-.155.422 0 .068.017.148.087.256.166.256.57.574 1.27.88 1.37.6 3.316.915 4.643.915s3.273-.315 4.643-.915c.7-.306 1.104-.625 1.27-.88A.448.448 0 0030 30.95c0-.073-.024-.21-.155-.422C28.723 28.718 26.485 27 24 27c-2.484 0-4.723 1.718-5.845 3.527z" fill="#203686"/></svg>
